X:1
T:Title
%%score { ( 1 4 ) | ( 2 3 ) }
L:1/8
M:6/8
K:Eb
V:1 treble nm="Grand Piano"
V:4 treble 
V:2 bass 
V:3 bass 
V:1
 z3 z2[Q:1/4=90] G | G2 G G2 G | [DEB]2 [CEA] G2 E | E2 E DE[A,DF] |[M:5/8] E-E- E3 |[M:1/8] B | %6
[M:3/4] B2 B B2 B | e>d c B2 c | d2 F G2 c |[M:5/8] B2- [GB-] [AB]2 |[M:1/8] B | %11
[M:3/4] c2 AA z [Fc] | c2 G B2 [_Gc] | [_Gd]2 =G [Ge]2 [CGc] |[M:5/8] [Gd]-[Gd]- [Gd]3 | %15
[M:1/8] [AB] |[M:3/4] [GB]2 e c2 A | [DF]2 [Dc] [EB]2 [A,EA][Q:1/4=89] | %18
 E-[EB] [G,B,E]=A,- [A,G][_A,DF][Q:1/4=87][Q:1/4=86][Q:1/4=85][Q:1/4=83][Q:1/4=82][Q:1/4=81][Q:1/4=79][Q:1/4=78][Q:1/4=77] | %19
[M:5/8] [G,E]-[G,E]- [G,E]3[Q:1/4=75][Q:1/4=74][Q:1/4=73][Q:1/4=71][Q:1/4=70][Q:1/4=69] |] %20
V:2
 z3 z2 [E,B,E] | [E,B,E]2 [E,B,E] [E,B,E]2 [E,E] | A,,2 A,, [E,B,E]2 [E,G,B,] | %3
 [B,,G,B,]2 [B,,G,B,] F,G,B,, |[M:5/8] [E,G,]-[E,G,]- [E,G,]3 |[M:1/8] [E,G,E] | %6
[M:3/4] [E,G,E]2 [F,A,D] [G,B,E]2 [G,_DE] | [A,CE]2 [A,CE] [G,E]2 [_G,B,=E] | %8
 [F,B,F]2 [F,B,D] [F,=A,E]2 [F,,A,E] |[M:5/8] B,2 [=E,_D] [F,=D]2 |[M:1/8] [E,G,E] | %11
[M:3/4] [A,E]2 .[F,CE]2[K:treble] B[K:bass][D,A,] | [E,G,E]2 [E,B,E] [G,B,E]2 [E,=A,] | %13
 [D,=A,]2 .[G,=B,]2 z/[K:treble] d/[K:bass]E, |[M:5/8] [G,=B,]-[G,B,]- [G,B,]3 |[M:1/8] [F,D] | %16
[M:3/4] [E,E]2 [G,B,E] [A,E]2 [F,CE] | [B,,B,]2 [B,,A,] [E,G,]2 C, | z G, .C,2 EB,, | %19
[M:5/8] E,-E,- E,3 |] %20
V:3
 x6 | x6 | x6 | z3 .[B,,B,]3 |[M:5/8] x5 |[M:1/8] x |[M:3/4] x6 | x6 | x6 |[M:5/8] B,,-B,,- B,,3 | %10
[M:1/8] x |[M:3/4] z2 z .B,,3[K:treble][K:bass] | x6 | z2 z .[C,C]3[K:treble][K:bass] |[M:5/8] x5 | %15
[M:1/8] x |[M:3/4] x6 | x6 | B,,2 z .F,,3 |[M:5/8] x5 |] %20
V:4
 x6 | x6 | x6 | x6 |[M:5/8] x5 |[M:1/8] x |[M:3/4] x6 | x6 | x6 |[M:5/8] D2 z z2 |[M:1/8] x | %11
[M:3/4] z2 z .[B,D]3 | x6 | x6 |[M:5/8] x5 |[M:1/8] x |[M:3/4] x6 | x6 | .[B,G]2 z [CE] z2 | %19
[M:5/8] x5 |] %20

